X:1
T:Title
%%score { ( 1 2 ) | ( 3 4 ) }
L:1/8
M:4/4
K:G
V:1 treble nm="Grand Piano"
V:2 treble 
V:3 bass 
V:4 bass 
V:1
 z4 z2[Q:1/4=100] D2 | G2 G2 G2 GA | B2 B2 B2 z E | [CFA]3 [B,G] [DFA]2 [DGB]2 |[M:3/4] [DFA]6 | %5
[M:1/4] D2 |[M:4/4] G2 G2 G2 GA | B2 B2 B2 [DG]2 | [EA]3 [EA] B2 A2 |[M:3/4] G6 |[M:1/4] d>B | %11
[M:4/4] A6 z2 | B6 z2 | B3 B A2 G2 |[M:3/4] [DFd]6 |[M:1/4] D2 |[M:4/4] G2 G2 G2 GA | %17
 B2 B2 B2 [DG]2 | [EA]3 [EA] B2 A2 |[M:7/4] G6 z2 z2 z4 |] %20
V:2
 z4 z2 z C | x8 | z4 z2 G2 | x8 |[M:3/4] x6 |[M:1/4] z A, |[M:4/4] x8 | x8 | x8 |[M:3/4] x6 | %10
[M:1/4] x2 |[M:4/4] z2 F>F F2 G>A | z2 G>G G2 G>A | x8 |[M:3/4] x6 |[M:1/4] z A, |[M:4/4] x8 | x8 | %18
 x8 |[M:7/4] x14 |] %20
V:3
 z4 z2 .B,2 | [G,B,D]2 [G,B,D]2 [G,B,D]2[K:treble] [G,D]-[G,CD] | %2
 [G,DG]2 [G,DG]2 [G,DG]2[K:bass] .[G,B,D]2 | D,3 D, D,2 D,2 |[M:3/4] D,6 |[M:1/4] G,2 | %6
[M:4/4][K:treble] [G,B,D]2 [G,B,D]2 [G,B,D]2 [G,D]-[G,CD] | %7
 [G,DG]2 [G,DG]2 [G,DG]2[K:bass] [B,,G,]2 | [C,G,]3 [^C,G,] [D,G,D]2 [D,F,C]2 |[M:3/4] [G,B,]6 | %10
[M:1/4] z2 |[M:4/4] z2 [D,D]>[D,D] [D,D]2 z2 | z2[K:treble] [G,D]>[G,D] [G,D]2 [G,B,D]>[G,CD] | %13
 [G,DG]3 [G,DG][K:bass] [F,D]2 [E,^CE]2 |[M:3/4] D,6 |[M:1/4] G,2 | %16
[M:4/4] [G,B,D]2[K:treble] [G,B,D]2 [G,B,D]2 [G,D]-[G,CD] | %17
 [G,DG]2 [G,DG]2 [G,DG]2[K:bass] [B,,G,]2 | [C,G,]3 [^C,G,] [D,G,D]2 [D,F,C]2 | %19
[M:7/4] [G,B,]6 z2 z2 z4 |] %20
V:4
 z4 z2 G,-[G,A,] | z4 z2[K:treble] .B,2 | x6[K:bass] x2 | x8 |[M:3/4] x6 |[M:1/4] x2 | %6
[M:4/4][K:treble] z4 z2 .B,2 | x6[K:bass] x2 | x8 |[M:3/4] x6 |[M:1/4] x2 |[M:4/4] x8 | %12
 x2[K:treble] x6 | x4[K:bass] x4 |[M:3/4] x6 |[M:1/4] x2 |[M:4/4] z4[K:treble] z2 .B,2 | %17
 x6[K:bass] x2 | x8 |[M:7/4] x14 |] %20

